X: 37995
T: Speed The Plough
R: reel
M: 4/4
K: Dmajor
d3A BF~F2|BFAF EFDA|FA~A2 GA(3BAG|A2de fee2|
faaf edBc|dBAF FEDE|~F3A GA(3BAG|1 A2de fedc:|2 A2de fedf||
~a2fa ~g2eg|fedf eb~b2|abgb afdB|ABde fee2|
fgaf ~g3b|f2df edBA|FA~A2 GA(3BAG|A2de fedf||
~a2fa ~g2eg|fefa edBA|~a3b af~f2|afde feeg|
fa~a2 gbfb|f2df edBA|FA~A2 GA(3BAG|A2de fedf||

